images/icons/clock.svg

<svg xmlns="http://www.w3.org/2000/svg" x="0px" y="0px"
width="50" height="50"
viewBox="0 0 172 172"
style=" fill:#000000;"><g fill="none" fill-rule="nonzero" stroke="none" stroke-width="1" stroke-linecap="butt" stroke-linejoin="miter" stroke-miterlimit="10" stroke-dasharray="" stroke-dashoffset="0" font-family="none" font-weight="none" font-size="none" text-anchor="none" style="mix-blend-mode: normal"><path d="M0,172v-172h172v172z" fill="none"></path><g fill="#0087ff"><path d="M72.24,6.88v10.32h6.88v3.77594c-36.63491,3.47364 -65.36,34.36961 -65.36,71.90406c0,39.8563 32.3837,72.24 72.24,72.24c39.8563,0 72.24,-32.3837 72.24,-72.24c0,-37.53445 -28.72509,-68.43042 -65.36,-71.90406v-3.77594h6.88v-10.32zM138.41297,17.70391l-6.90015,6.90016l15.8764,15.87641l6.90015,-6.90016zM86,27.52c36.13808,0 65.36,29.22192 65.36,65.36c0,36.13808 -29.22192,65.36 -65.36,65.36c-36.13808,0 -65.36,-29.22192 -65.36,-65.36c0,-36.13808 29.22192,-65.36 65.36,-65.36zM51.5664,55.0064c-1.39982,0.00037 -2.65984,0.84884 -3.18658,2.14577c-0.52674,1.29693 -0.21516,2.7837 0.78799,3.76001l30.19406,30.19406c-0.15753,0.57819 -0.23884,1.17449 -0.24187,1.77375c0,3.79972 3.08028,6.88 6.88,6.88c0.60121,-0.00025 1.1998,-0.07931 1.78047,-0.23515l6.10735,6.10734c0.86281,0.89867 2.14404,1.26068 3.34956,0.94641c1.20552,-0.31427 2.14696,-1.2557 2.46122,-2.46122c0.31427,-1.20552 -0.04774,-2.48675 -0.94641,-3.34956l-6.11406,-6.11406c0.15753,-0.57819 0.23884,-1.17449 0.24187,-1.77375c0,-3.79972 -3.08028,-6.88 -6.88,-6.88c-0.60121,0.00025 -1.1998,0.07931 -1.78047,0.23515l-30.18735,-30.18734c-0.64765,-0.66575 -1.53698,-1.04135 -2.46578,-1.04141z"></path></g></g></svg>

<svg xmlns="http://www.w3.org/2000/svg" width="50" height="50" viewBox="0 0 172 172">
  <g fill="none" stroke-miterlimit="10" font-family="none" font-weight="none" font-size="none" text-anchor="none" style="mix-blend-mode:normal">
    <path d="M0 172V0h172v172z"/>
    <path d="M72.24 6.88V17.2h6.88v3.776C42.485 24.45 13.76 55.346 13.76 92.88c0 39.856 32.384 72.24 72.24 72.24 39.856 0 72.24-32.384 72.24-72.24 0-37.534-28.725-68.43-65.36-71.904V17.2h6.88V6.88zm66.173 10.824l-6.9 6.9 15.876 15.876 6.9-6.9zM86 27.52c36.138 0 65.36 29.222 65.36 65.36S122.138 158.24 86 158.24s-65.36-29.222-65.36-65.36S49.862 27.52 86 27.52zM51.566 55.006a3.44 3.44 0 00-2.398 5.906l30.194 30.194a6.88 6.88 0 00-.242 1.774 6.88 6.88 0 008.66 6.645l6.108 6.107a3.44 3.44 0 104.864-4.864l-6.114-6.114a6.88 6.88 0 00.242-1.774 6.88 6.88 0 00-8.66-6.645L54.032 56.048a3.44 3.44 0 00-2.466-1.042z" fill="#2138c9"/>
  </g>
</svg>
